images/logo.svg

<svg width="120" height="50" viewBox="0 0 120 50" fill="none" xmlns="http://www.w3.org/2000/svg">
<path fill-rule="evenodd" clip-rule="evenodd" d="M4.8715 1.18665L2.59963 1.06278L1.66317 0.865112L1.47588 0.494156C1.47588 0.148247 1.70999 0 2.17886 0H25.6717C36.6802 0 44.4092 3.53491 48.9067 10.6291C51.4833 14.7326 52.7712 19.6025 52.7712 25.2385C52.7712 28.1805 52.3498 31.0229 51.4826 33.7665C50.4994 36.659 49.1409 39.2056 47.384 41.48C45.463 43.877 43.1212 45.7318 40.4273 47.0911C37.5461 48.4754 34.3141 49.1923 30.6837 49.1923H0.726074C0.234114 49.1923 0 49.019 0 48.7232C0 48.4016 0.351492 48.229 1.00701 48.229L6.74569 47.8587C7.63597 47.7342 8.26839 47.4621 8.57306 47.0918L9.15867 46.226C9.36969 45.6337 9.48707 44.7442 9.51016 43.5325V4.32624C9.51016 2.79368 8.69044 1.8541 7.09782 1.48315L4.8715 1.18665ZM17.5201 1.8541L17.3559 2.84309V46.3742C17.3559 46.8684 17.4495 47.2136 17.6368 47.3382L18.5739 47.4864H21.6655L28.8326 47.2143C30.753 46.9923 32.3924 46.6707 33.681 46.2253C34.9689 45.7318 36.187 45.0143 37.2408 44.1498C38.1779 43.3342 39.1381 42.1719 40.1926 40.6887C41.9487 38.2667 43.2136 35.1765 43.9865 31.3945C44.4547 28.9237 44.6895 26.5254 44.6895 24.2265C44.6895 22.1998 44.4085 20.0242 43.8229 17.6759C43.0032 14.2893 41.7615 11.323 40.0046 8.8014C36.6084 3.90722 31.0339 1.4845 23.328 1.4845H18.5733C18.0351 1.43373 17.6836 1.55761 17.5201 1.8541ZM57.3849 48.8213C57.3381 48.5241 57.5722 48.401 58.0879 48.401L59.7273 48.3509C60.6176 48.2277 61.1564 47.9068 61.3667 47.412L61.6714 45.6323V31.27C61.6714 30.7264 61.4835 30.306 61.1326 30.0589L59.9146 29.9344L58.2752 30.4049L57.3849 30.3548C57.2675 30.0583 57.619 29.7861 58.4387 29.5391C60.3828 28.9955 62.0935 28.303 63.545 27.4379C64.4346 26.8943 65.067 26.5971 65.348 26.4739L66.0509 26.4002C66.2851 26.4489 66.4031 26.9437 66.4031 27.8332V45.9275C66.4031 46.7919 66.5897 47.4106 66.9419 47.7809C67.3626 48.2263 68.3472 48.4483 69.8692 48.4483C70.408 48.4483 70.6883 48.5729 70.7364 48.8437C70.7364 49.067 70.5722 49.1408 70.2907 49.1408H57.8063C57.5253 49.1429 57.3849 49.0183 57.3849 48.8213ZM112.661 31.0229C111.514 32.284 110.741 33.7665 110.319 35.5461V46.0527C110.319 46.9916 110.624 47.659 111.256 48.0794L112.686 48.3502L114.184 48.5235C114.536 48.5736 114.677 48.648 114.677 48.845L114.607 49.0183L114.209 49.1429H101.677C101.303 49.1429 101.092 49.0183 101.092 48.8213L101.443 48.5242L103.552 48.3509C104.371 48.2026 104.887 47.9068 105.168 47.4614L105.52 46.3492V31.5177L105.285 30.4299L104.888 30.1828C104.77 30.0596 104.583 29.9858 104.301 29.9357C103.95 29.912 103.528 29.9858 103.084 30.1828L101.89 30.5294L101.21 30.3561C101.093 30.1828 101.14 30.0596 101.303 29.9858L102.31 29.5404C104.605 28.8235 106.456 28.0823 107.745 27.3167L109.337 26.4015L110.04 26.4502L110.321 27.069V32.5067C112.078 29.491 113.483 27.6376 114.444 27.0189C115.029 26.6486 115.591 26.3514 116.013 26.2282L116.833 26.1544C117.348 26.1043 117.934 26.2776 118.589 26.723C119.48 27.2666 119.948 28.0823 119.994 29.12C120.041 29.9858 119.806 30.654 119.291 31.1718C118.823 31.5922 118.354 31.7167 117.933 31.5922C117.535 31.5184 117.23 31.3451 117.02 31.098L116.364 30.2336C115.849 29.4416 115.357 29.1945 114.772 29.4179C114.09 29.6135 113.388 30.1584 112.661 31.0229ZM63.7092 10.7036C62.842 10.7036 62.1396 11.0251 61.5547 11.6431C60.9222 12.2612 60.6176 13.0518 60.6638 13.967C60.6176 14.8321 60.9216 15.5741 61.5547 16.1921C62.1396 16.8101 62.8426 17.131 63.7092 17.131C64.5282 17.131 65.255 16.8094 65.8399 16.1921C66.4249 15.5741 66.7533 14.8328 66.7533 13.967C66.7533 13.0518 66.4249 12.2612 65.8399 11.6431C65.255 11.0251 64.5282 10.7036 63.7092 10.7036ZM76.123 30.4292C76.9658 29.2432 78.0209 28.2543 79.2851 27.4636C80.4102 26.7711 81.5339 26.3264 82.7051 26.103L87.0385 25.8322C88.6067 25.906 90.0601 26.2275 91.3718 26.8449C94.534 28.328 96.5242 31.0479 97.2734 35.0025C98.0463 39.0072 97.3914 42.3946 95.3293 45.1382C93.5731 47.4614 91.2538 48.9445 88.3264 49.5869C85.2586 50.3038 82.4011 50.0811 79.8239 48.9696C76.4738 47.5352 74.4374 44.6927 73.7806 40.5398C73.195 36.6102 73.9678 33.2723 76.123 30.4292ZM89.8478 29.3177C88.4194 27.6376 86.6158 26.8957 84.4369 27.0926C82.3299 27.316 80.7135 28.5507 79.6591 30.899C78.6995 33.0252 78.3474 35.6219 78.6995 38.6864C78.9561 41.7271 79.8707 44.1492 81.3453 46.0033C82.9149 47.9562 84.6954 48.7719 86.6857 48.4016C88.7703 47.9813 90.2936 46.7939 91.3006 44.8173C92.2839 42.7906 92.6348 40.1702 92.4006 36.833C92.1203 33.4957 91.3013 31.0229 89.8478 29.3177Z" fill="#1B1B1B"/>
<path fill-rule="evenodd" clip-rule="evenodd" d="M57.2208 30.4056V30.6527L56.7051 30.3061V30.4293L56.752 30.6527H56.6814C56.6814 30.6026 56.6814 30.4794 56.6814 30.3555V30.1822H56.7051L57.1734 30.5538V30.1822H57.267L57.2208 30.4056Z" fill="#1B1B1B"/>
<path fill-rule="evenodd" clip-rule="evenodd" d="M58.0872 30.2323H57.8062V30.4056H58.0404V30.4293H57.8062V30.6026H58.0872V30.6533H57.7363V30.1822H58.0872V30.2323Z" fill="#1B1B1B"/>
<path fill-rule="evenodd" clip-rule="evenodd" d="M59.3758 30.1822H59.3996L59.1654 30.6527H59.0949L58.9076 30.281L58.6966 30.6527H58.6728C58.5555 30.4293 58.4625 30.281 58.4387 30.1822H58.5561L58.6966 30.5538L58.9076 30.1822H58.9775L59.1417 30.5538L59.329 30.1822H59.3758Z" fill="#1B1B1B"/>
<path fill-rule="evenodd" clip-rule="evenodd" d="M60.0313 30.4293L60.0781 30.6533H59.9614V30.48L59.7273 30.1822H59.844L60.0313 30.4293L60.2186 30.1822H60.3129L60.0313 30.4293Z" fill="#1B1B1B"/>
<path fill-rule="evenodd" clip-rule="evenodd" d="M60.6874 30.2816C60.7335 30.2329 60.8516 30.1828 60.9683 30.1828C61.0863 30.1828 61.1562 30.2329 61.2499 30.2816C61.2723 30.3067 61.3198 30.3554 61.3198 30.4299L61.2499 30.6032C61.1562 30.6533 61.0857 30.6533 60.9683 30.6533C60.8516 30.6533 60.7342 30.6533 60.6874 30.6032L60.5693 30.4299C60.57 30.3554 60.6174 30.3067 60.6874 30.2816ZM61.1562 30.2816L60.9683 30.2329L60.7816 30.2816C60.7342 30.3067 60.688 30.3554 60.688 30.4299C60.688 30.48 60.7342 30.5287 60.7816 30.5544L60.9683 30.6533C61.0382 30.6533 61.1325 30.6032 61.1562 30.5544C61.2024 30.5294 61.2499 30.4807 61.2499 30.4299C61.2499 30.3554 61.2024 30.3067 61.1562 30.2816Z" fill="#1B1B1B"/>
<path fill-rule="evenodd" clip-rule="evenodd" d="M61.8587 30.2323L61.835 30.4056H61.9049C62.0217 30.4056 62.0929 30.3555 62.0929 30.3067C62.0929 30.2817 62.0691 30.233 61.9511 30.233L61.8587 30.2323ZM61.9755 30.1822C62.0935 30.1822 62.1859 30.2323 62.1859 30.3067L62.0929 30.4056L61.9748 30.4293L62.2564 30.6527H62.1384L61.8575 30.4293H61.835L61.8587 30.6527H61.7407V30.1822H61.9755Z" fill="#1B1B1B"/>
<path fill-rule="evenodd" clip-rule="evenodd" d="M63.1467 30.1822L62.8427 30.4056L63.1467 30.6533H63.0306L62.7722 30.4293V30.4056L62.7247 30.4293L62.7722 30.6533H62.6548V30.1822H62.7722L62.7247 30.4056H62.7722L63.0768 30.1822H63.1467Z" fill="#1B1B1B"/>
</svg>

<svg xmlns="http://www.w3.org/2000/svg" width="120" height="50" fill="none" viewBox="0 0 120 50"><path fill="#1b1b1b" fill-rule="evenodd" d="M4.872 1.187 2.6 1.063 1.663.865l-.187-.37c0-.347.234-.495.703-.495h23.493C36.68 0 44.409 3.535 48.907 10.63q3.864 6.154 3.864 14.608c0 2.942-.421 5.785-1.288 8.529-.984 2.892-2.342 5.439-4.099 7.713-1.921 2.397-4.263 4.252-6.957 5.611-2.88 1.384-6.113 2.101-9.743 2.101H.726c-.492 0-.726-.173-.726-.469 0-.321.351-.494 1.007-.494l5.739-.37c.89-.125 1.522-.397 1.827-.767l.586-.866c.21-.592.328-1.482.351-2.693V4.325c0-1.532-.82-2.472-2.412-2.843zm12.648.667-.164.99v43.53c0 .494.093.84.28.964l.938.148h3.092l7.167-.272c1.92-.222 3.56-.543 4.848-.989a13 13 0 0 0 3.56-2.075c.937-.816 1.897-1.978 2.952-3.461 1.756-2.422 3.02-5.513 3.794-9.294.468-2.471.703-4.87.703-7.168 0-2.027-.282-4.203-.867-6.551-.82-3.387-2.062-6.353-3.818-8.875-3.397-4.894-8.971-7.316-16.677-7.316h-4.755q-.808-.076-1.053.37m39.865 46.967c-.047-.297.187-.42.703-.42l1.64-.05c.89-.123 1.428-.444 1.639-.939l.304-1.78V31.27c0-.544-.187-.964-.538-1.211l-1.218-.125-1.64.47-.89-.05q-.176-.444 1.054-.815c1.944-.544 3.654-1.236 5.106-2.101a15 15 0 0 1 1.803-.964l.703-.074c.234.049.352.544.352 1.433v18.095c0 .864.187 1.483.539 1.853.42.445 1.405.667 2.927.667.539 0 .82.125.867.396 0 .223-.164.297-.445.297H57.806c-.28.002-.421-.123-.421-.32m55.276-17.798c-1.147 1.261-1.92 2.744-2.342 4.523v10.507c0 .939.305 1.606.937 2.026l1.43.271 1.498.173c.352.05.493.125.493.322l-.07.173-.398.125h-12.532c-.374 0-.585-.125-.585-.322l.351-.297 2.109-.173c.819-.148 1.335-.444 1.616-.89l.352-1.112V31.518l-.235-1.088-.397-.247c-.118-.123-.305-.197-.587-.247-.351-.024-.773.05-1.217.247l-1.194.346-.68-.173c-.117-.173-.07-.296.093-.37l1.007-.446c2.295-.716 4.146-1.458 5.435-2.223l1.592-.916.703.05.281.618v5.438c1.757-3.016 3.162-4.87 4.123-5.488.585-.37 1.147-.668 1.569-.79l.82-.075c.515-.05 1.101.124 1.756.569.891.544 1.359 1.36 1.405 2.397.047.866-.188 1.534-.703 2.052-.468.42-.937.545-1.358.42-.398-.074-.703-.247-.913-.494l-.656-.864c-.515-.792-1.007-1.04-1.592-.816-.682.195-1.384.74-2.111 1.605m-48.952-20.32c-.867 0-1.57.322-2.154.94-.633.618-.937 1.409-.891 2.324-.046.865.258 1.607.89 2.225.586.618 1.289.939 2.155.939.82 0 1.546-.322 2.13-.939.586-.618.914-1.36.914-2.225 0-.915-.328-1.706-.913-2.324s-1.312-.94-2.13-.94M76.123 30.43a11 11 0 0 1 3.162-2.965c1.125-.693 2.249-1.138 3.42-1.361l4.334-.27c1.568.073 3.021.395 4.333 1.012 3.162 1.483 5.152 4.203 5.901 8.157.773 4.005.118 7.393-1.944 10.136-1.756 2.323-4.075 3.807-7.003 4.449-3.067.717-5.925.494-8.502-.617-3.35-1.435-5.387-4.277-6.043-8.43-.586-3.93.187-7.268 2.342-10.11m13.725-1.111q-2.143-2.52-5.411-2.225c-2.107.223-3.724 1.458-4.778 3.806-.96 2.126-1.312 4.723-.96 7.787.257 3.041 1.172 5.463 2.646 7.317 1.57 1.953 3.35 2.769 5.34 2.399 2.085-.42 3.609-1.608 4.616-3.585.983-2.026 1.334-4.647 1.1-7.984-.28-3.337-1.1-5.81-2.553-7.515" clip-rule="evenodd"/><path fill="#1b1b1b" fill-rule="evenodd" d="M57.22 30.406v.247l-.515-.347v.123l.047.224h-.07v-.471h.023l.468.372v-.372h.094zm.867-.174h-.28v.174h.233v.023h-.234v.174h.281v.05h-.35v-.47h.35zm1.289-.05h.024l-.235.47h-.07l-.187-.371-.211.372h-.024c-.117-.224-.21-.372-.234-.47h.117l.14.37.212-.37h.07l.164.37.187-.37zm.655.248.047.223h-.117v-.173l-.234-.298h.117zl.188-.247h.094zm.656-.148a.43.43 0 0 1 .281-.1c.118 0 .188.05.282.1.022.025.07.073.07.148l-.07.173c-.094.05-.164.05-.282.05-.116 0-.234 0-.28-.05l-.119-.173c.001-.075.048-.123.118-.148m.47 0-.189-.05-.186.05a.17.17 0 0 0-.094.148c0 .05.046.099.094.124l.186.1c.07 0 .164-.05.188-.1.046-.025.094-.073.094-.124a.17.17 0 0 0-.094-.148m.703-.05-.024.174h.07c.117 0 .188-.05.188-.1 0-.024-.024-.073-.142-.073zm.116-.05c.118 0 .21.05.21.125l-.092.099-.118.023.281.224h-.118l-.28-.224h-.023l.024.224h-.118v-.47zm1.172 0-.304.224.304.247h-.116l-.259-.224v-.023l-.047.023.047.224h-.117v-.47h.117l-.047.223h.047l.305-.224z" clip-rule="evenodd"/></svg>
